X: 1226
T: Karcığar Örnek-öz
C: Hüseyin Sadettin Arel
O: Turkey
F: http://compmusic.upf.edu/node/140
N: karcigar--ornek-oz--sofyan--1--huseyin_sadettin_arel
N: makam= karcigar
N: form= ornek-oz
N: usul= sofyan = 4/4
M: 4/4
L: 1/16
K: C _2/4B _3/4e ^3/4f 
Q: 1/4=90
%%MIDI tuningsystem comma53
A6 A2  | d8  | e2 ^f2 g2 ^3/4f2  | e3d c2 z2  | \
w:  Kar cı  |  ğar   |   |   | 
d6 a2  | a4 g4  | f6 e2  | d4 e4  | d6 c2  | 
w:  Kar cı  |  ğar   |  Kar cı  |  ğar   |  Kar cı  | 
c4 B4  | B6 A2  | A6 z2  | |


